X:6522
T:the Beggar Boy of the North
O:england
M:6/8
A:North-West
R:Slow air
K:C
E>FE c2c| B>AG A2G| EC2 D2D| E2F GE2| \
E>FE c2c| B>AG A2G| EC2 D2D| E2F GE2|
E>FE c2c| BG2  A2G| EG2 B>AB| c2E D3| \
EG2 B>AG| Acd/c/ B>cA| GEC D2D| E2F G2E|]


